Sources/FrostedUI/Resources/Icons.xcassets/sealCheckmark24.imageset/seal-checkmark-24.svg

<svg width="24" height="24" viewBox="0 0 24 24" fill="none" xmlns="http://www.w3.org/2000/svg" data-fui-icon="true">
  <g clip-path="url(#clip0_882_1054)">
    <path
      d="M12 0C13.115 0 14.1105 0.507705 14.7705 1.30371C15.1135 1.71736 15.5232 2.09201 16.0195 2.29785C16.4547 2.47824 16.9302 2.51659 17.4014 2.48926L17.6035 2.47363C18.6359 2.37559 19.7026 2.72227 20.4932 3.5127C21.2822 4.30191 21.6272 5.36602 21.5303 6.39648L21.5156 6.59863C21.4886 7.07111 21.5276 7.54822 21.709 7.98438C21.9152 8.47985 22.2887 8.88908 22.7012 9.23242C23.4944 9.89274 24 10.8871 24 12C24 13.1096 23.4974 14.1008 22.708 14.7607L22.5547 14.8945C22.2024 15.2121 21.8911 15.5813 21.71 16.0176C21.5017 16.5192 21.4811 17.0744 21.5312 17.6152C21.6266 18.6441 21.281 19.7062 20.4932 20.4941C19.7036 21.2837 18.6385 21.6293 17.6074 21.5322C17.0686 21.4815 16.5155 21.5023 16.0156 21.71L15.833 21.7949C15.4166 22.0108 15.0645 22.3433 14.7627 22.7051C14.1028 23.496 13.1109 24 12 24C10.9537 24 10.0121 23.5535 9.35449 22.8408L9.22754 22.6953C8.92975 22.3359 8.58126 22.0061 8.16895 21.792L7.98828 21.707C7.4937 21.5014 6.94627 21.4812 6.41309 21.5322L6.21875 21.5449C5.2475 21.5855 4.26299 21.2356 3.52148 20.4941C2.73368 19.7061 2.38715 18.6435 2.48242 17.6143C2.52603 17.1432 2.51579 16.6612 2.37305 16.2139L2.30371 16.0244C2.12189 15.5882 1.80953 15.2198 1.45605 14.9033L1.30273 14.7705C0.507193 14.1104 4.62794e-05 13.1146 0 12C8.55497e-06 10.9521 0.447611 10.0086 1.16211 9.35059L1.30859 9.22266C1.67094 8.92319 2.00391 8.57329 2.21973 8.1582L2.30469 7.97656C2.48531 7.54254 2.52461 7.06786 2.49805 6.59766L2.48242 6.39648C2.38608 5.36601 2.73272 4.30168 3.52148 3.5127C4.31314 2.72108 5.38221 2.37573 6.41602 2.47559C6.88042 2.5204 7.35548 2.5095 7.79688 2.36914L7.9834 2.30176C8.47558 2.09728 8.88088 1.72389 9.21973 1.3125C9.88 0.510905 10.8803 2.97449e-05 12 0ZM12 1.5C11.3475 1.50003 10.7656 1.79596 10.3779 2.2666C9.96239 2.77111 9.37047 3.34958 8.55957 3.68652C7.74404 4.02533 6.9179 4.03117 6.27148 3.96875C5.74003 3.91742 5.19777 4.06523 4.76172 4.41211L4.58203 4.57324C4.12229 5.0332 3.92 5.65188 3.97656 6.25684C4.03712 6.90477 4.0301 7.73417 3.68945 8.55273C3.35053 9.36704 2.76908 9.96224 2.26367 10.3799C1.85357 10.719 1.57659 11.2061 1.51367 11.7588L1.5 12C1.50005 12.6491 1.79359 13.2286 2.26074 13.6162C2.76663 14.036 3.34775 14.6329 3.6875 15.4482C4.02998 16.2703 4.03672 17.1034 3.97656 17.7529C3.92069 18.357 4.12295 18.9743 4.58203 19.4336L4.76172 19.5938C5.19742 19.9406 5.73862 20.0898 6.26953 20.0391C6.9169 19.9771 7.74556 19.9823 8.56348 20.3223C9.37311 20.6589 9.96621 21.2354 10.3828 21.7383C10.7705 22.206 11.3501 22.5 12 22.5C12.6466 22.5 13.2237 22.2087 13.6113 21.7441C14.0313 21.2408 14.6269 20.663 15.4395 20.3252C16.263 19.983 17.0977 19.9778 17.748 20.0391C18.3534 20.0961 18.9724 19.8938 19.4326 19.4336C19.8915 18.9745 20.094 18.3578 20.0381 17.7539C19.9777 17.1025 19.983 16.2668 20.3252 15.4424C20.6634 14.6278 21.2429 14.031 21.7461 13.6104C22.2097 13.2228 22.5 12.6461 22.5 12C22.5 11.3514 22.2078 10.7724 21.7422 10.3848C21.2395 9.96635 20.661 9.37237 20.3232 8.56055C19.9815 7.73884 19.976 6.90582 20.0371 6.25586C20.094 5.65077 19.8921 5.03289 19.4326 4.57324C18.9715 4.11226 18.3511 3.90922 17.7451 3.9668C17.0963 4.02842 16.265 4.02391 15.4443 3.68359C14.6301 3.34587 14.0349 2.76569 13.6162 2.26074C13.2286 1.79323 12.6492 1.5 12 1.5ZM15.2227 8.47949C15.5155 8.18665 15.9903 8.18667 16.2832 8.47949C16.5761 8.77238 16.5761 9.24714 16.2832 9.54004L10.2822 15.542C9.98948 15.8347 9.5146 15.8344 9.22168 15.542L6.9707 13.291C6.67785 12.9981 6.67785 12.5234 6.9707 12.2305C7.26359 11.9376 7.73836 11.9376 8.03125 12.2305L9.75098 13.9502L15.2227 8.47949Z"
      fill="currentColor"
    />
  </g>
  <defs>
    <clipPath id="clip0_882_1054"><path fill="currentColor" d="M0 0H24V24H0z" /></clipPath>
  </defs>
</svg>

<svg xmlns="http://www.w3.org/2000/svg" width="24" height="24" fill="none" data-fui-icon="true" viewBox="0 0 24 24"><g clip-path="url(#a)"><path fill="currentColor" d="M12 0a3.59 3.59 0 0 1 2.77 1.304c.344.413.753.788 1.25.994.435.18.91.219 1.381.191l.203-.015a3.6 3.6 0 0 1 2.89 1.039 3.6 3.6 0 0 1 1.036 2.883l-.014.203c-.027.472.012.95.193 1.385.206.496.58.905.992 1.248A3.6 3.6 0 0 1 24 12c0 1.11-.503 2.1-1.292 2.76l-.153.135c-.353.317-.664.686-.845 1.123-.208.501-.229 1.056-.179 1.597a3.6 3.6 0 0 1-1.038 2.88 3.6 3.6 0 0 1-2.886 1.037c-.538-.05-1.091-.03-1.591.178l-.183.085c-.416.216-.768.548-1.07.91A3.59 3.59 0 0 1 12 24a3.59 3.59 0 0 1-2.646-1.16l-.126-.145c-.298-.36-.647-.689-1.059-.903l-.18-.085c-.495-.206-1.043-.226-1.576-.175l-.194.013a3.6 3.6 0 0 1-2.698-1.05 3.6 3.6 0 0 1-1.039-2.88c.044-.472.034-.954-.109-1.401l-.07-.19c-.181-.436-.493-.804-.847-1.12l-.153-.133A3.6 3.6 0 0 1 0 12c0-1.048.448-1.991 1.162-2.65l.147-.127c.362-.3.695-.65.91-1.065l.086-.181c.18-.434.22-.91.193-1.38l-.016-.2a3.6 3.6 0 0 1 1.04-2.884 3.6 3.6 0 0 1 2.894-1.037c.464.044.94.034 1.38-.107l.187-.067c.493-.205.898-.578 1.237-.99A3.6 3.6 0 0 1 12 0m0 1.5c-.652 0-1.234.296-1.622.767-.416.504-1.008 1.083-1.818 1.42-.816.338-1.642.344-2.289.282a2.1 2.1 0 0 0-1.51.443l-.179.161a2.1 2.1 0 0 0-.605 1.684c.06.648.053 1.477-.288 2.296-.338.814-.92 1.41-1.425 1.827-.41.339-.687.826-.75 1.379L1.5 12c0 .65.294 1.229.76 1.616.507.42 1.088 1.017 1.428 1.832.342.822.349 1.655.289 2.305a2.1 2.1 0 0 0 .605 1.68l.18.16c.435.348.977.497 1.508.446.647-.062 1.476-.057 2.293.283.81.337 1.403.913 1.82 1.416.388.468.967.762 1.617.762.647 0 1.224-.291 1.611-.756.42-.503 1.016-1.081 1.829-1.419.823-.342 1.658-.347 2.308-.286a2.1 2.1 0 0 0 1.685-.605c.459-.46.661-1.076.605-1.68-.06-.652-.055-1.487.287-2.312.338-.814.918-1.411 1.421-1.832A2.09 2.09 0 0 0 22.5 12c0-.649-.292-1.228-.758-1.615-.503-.419-1.081-1.013-1.419-1.824-.341-.822-.347-1.655-.286-2.305a2.1 2.1 0 0 0-.604-1.683 2.1 2.1 0 0 0-1.688-.606c-.649.061-1.48.057-2.3-.283-.815-.338-1.41-.918-1.829-1.423A2.09 2.09 0 0 0 12 1.5m3.223 6.98a.75.75 0 0 1 1.06 1.06l-6 6.002a.75.75 0 0 1-1.061 0L6.97 13.291a.75.75 0 1 1 1.06-1.06l1.72 1.72z"/></g><defs><clipPath id="a"><path fill="currentColor" d="M0 0h24v24H0z"/></clipPath></defs></svg>
